X:52
T: BEI EINEM LANDSMANN BIN ICH GERN
N: B0536
O: Europa, Mitteleuropa, Deutschland
R: Wander -, Heimat - Lied
M: 3/4
L: 1/16
K: D
A2G2 | F2A2d6A2 | c2B2E6
Ec | c6B2A2G2 | F4z4
A2G2 | F2A2d6A2 | c2B2E6
Ec | c6BAG2C2 | D4z4
F2E2 | E3E^G6E2 | A2A2c6
Ac | e6B2d2c2 | A8
A2G2 | F2A2d6A2 | c2B2E6
Ec | c6B2A2G2 | F4z4
A2G2 | F2A2d6A2 | c2B2E6
Ec | c6BAG2C2 | D4z4

